src/assets/img/providers/amatic-g.svg

<svg width="112" height="30" viewBox="0 0 112 30" fill="none" xmlns="http://www.w3.org/2000/svg">
<path fill-rule="evenodd" clip-rule="evenodd" d="M1.4315 20.2608C1.77344 20.2121 2.11538 20.1634 2.45732 20.1634C2.79926 20.1634 3.14119 20.1634 3.48313 20.2121C4.85088 20.3095 6.04767 20.3095 7.07348 20.3095C7.64337 20.3095 7.92832 20.2121 7.92832 20.0173C7.92832 19.8225 7.58639 19.7738 6.9595 19.7251C6.23788 19.6908 5.74187 19.6566 5.49132 19.6393C5.3857 19.632 5.3237 19.6277 5.3068 19.6277C5.02185 19.579 4.90787 19.4329 4.90787 19.1407C4.90787 18.7024 5.59175 16.9491 6.90251 13.8809H14.0262C14.5759 15.2566 14.9633 16.3086 15.2256 17.0211L15.2257 17.0212L15.2258 17.0216L15.226 17.0223C15.3443 17.3434 15.4371 17.5955 15.5079 17.777L15.6789 18.1667L15.9639 18.9459C16.0209 19.092 16.0209 19.1407 16.0209 19.1894C16.0209 19.5303 15.052 19.6764 13.0574 19.6764C12.4305 19.6764 12.1456 19.7738 12.1456 20.0173C12.1456 20.2121 12.3735 20.3095 12.8294 20.3095C13.0004 20.3095 13.1714 20.3095 13.3423 20.2608L17.6166 20.1634L21.8338 20.2608C21.9131 20.2608 22.0048 20.2713 22.103 20.2826L22.103 20.2826C22.2164 20.2955 22.3385 20.3095 22.4607 20.3095C22.8026 20.3095 22.9736 20.2121 22.9736 20.066C22.9736 19.9199 22.6886 19.8225 22.1187 19.7738C21.2639 19.7738 20.694 19.6764 20.4091 19.579C20.1241 19.4816 19.8961 19.1894 19.7252 18.7511L13.7413 4.87113C12.7155 2.53346 12.0316 0.975007 11.7466 0.195783C11.6896 0.0983795 11.6326 0.000976562 11.5757 0.000976562C11.4617 0.000976562 11.3477 0.0983789 11.2907 0.293185L11.1767 0.877604C11.0058 1.16981 10.8918 1.41332 10.8918 1.65683C9.06811 5.94256 6.73154 11.5432 3.88206 18.605C3.71109 19.0433 3.48313 19.3842 3.14119 19.5303C2.85625 19.6764 2.34334 19.7738 1.60247 19.8225C0.918598 19.8225 0.57666 19.9199 0.57666 20.1147C0.57666 20.3095 0.747629 20.3582 1.03258 20.3582C1.09658 20.3309 1.16059 20.3189 1.23469 20.305C1.29254 20.2942 1.35655 20.2822 1.4315 20.2608ZM10.4929 5.01724L12.0886 8.96206C12.3778 9.63774 12.6345 10.2465 12.8629 10.7884C13.3095 11.8477 13.6483 12.6513 13.9122 13.1991H7.13047C8.44123 9.88739 9.58102 7.1114 10.4929 5.01724ZM26.4521 7.74424C27.2499 7.74424 27.7628 7.84164 27.9338 7.93904C28.1048 8.03644 28.1617 8.42605 28.1617 9.05917V18.7507C28.1617 19.2865 28.1048 19.5787 28.0478 19.6761C27.9908 19.7735 27.7058 19.8222 27.1929 19.8222C26.4521 19.8222 26.1101 19.9196 26.1101 20.0657C26.1101 20.2118 26.2811 20.3092 26.623 20.3092H27.3639H29.2445H29.9284H30.3843C30.8403 20.3092 31.0682 20.2118 31.0682 20.0657C31.0682 19.9196 30.8972 19.8709 30.6123 19.8709H30.6122C30.0994 19.8709 29.7005 19.8709 29.4155 19.8222C29.1876 19.7735 29.0736 19.6274 29.0736 19.3839V9.59489C31.5811 14.8059 33.0629 18.0689 33.5758 19.3839C33.8037 19.9196 33.9747 20.1631 34.1457 20.1631C34.2596 20.1631 34.4306 19.8709 34.6586 19.2865C34.8235 18.8535 34.9812 18.4392 35.132 18.0429L35.136 18.0323C35.713 16.5164 36.1903 15.2622 36.5962 14.2215C37.2667 12.61 37.7832 11.3408 38.1682 10.3945L38.1684 10.3941L38.1694 10.3916C38.3075 10.0522 38.4286 9.75451 38.5339 9.49749V18.702C38.5339 19.3352 38.4769 19.6761 38.4199 19.7735C38.3629 19.8222 38.0779 19.8709 37.622 19.8709C37.1825 19.8709 36.8551 19.8948 36.6593 19.9091L36.6592 19.9091C36.5758 19.9152 36.5163 19.9196 36.4822 19.9196C36.3683 19.9196 36.3113 19.9683 36.3113 20.0657C36.3113 20.2118 36.5392 20.2605 36.9382 20.2605H37.1091H38.5909H39.9016H41.0984H42.5801H42.9221C43.321 20.2605 43.549 20.1631 43.549 20.017C43.549 19.8709 43.378 19.7735 43.036 19.7735C42.1812 19.7735 41.6683 19.7248 41.4973 19.6761C41.3264 19.6274 41.2694 19.1891 41.2694 18.4585V8.42606C41.2694 8.08515 41.4403 7.89034 41.7253 7.79294C41.7605 7.79294 41.8175 7.78829 41.8963 7.78186C42.0724 7.76749 42.3573 7.74424 42.7511 7.74424C43.15 7.74424 43.378 7.64683 43.378 7.50073C43.378 7.30592 43.093 7.25722 42.5231 7.25722H41.0414H38.4769L35.5704 14.2702C35.5213 14.3962 35.4627 14.5424 35.396 14.7086C35.2309 15.1207 35.0162 15.6564 34.7725 16.3157L33.0629 12.5657C32.7296 11.8379 32.4444 11.254 32.2231 10.8006L32.2229 10.8003L32.2228 10.8001L32.2227 10.7999L32.2227 10.7999C32.1035 10.5559 32.0028 10.3497 31.9231 10.1793L31.1252 8.47476C30.9542 8.08514 30.7833 7.79294 30.6693 7.59813L30.5553 7.30592H30.5552C28.2757 7.30592 26.908 7.30592 26.566 7.35463C26.1671 7.35463 25.9961 7.45203 25.9961 7.54943C25.9961 7.64683 26.1671 7.74424 26.4521 7.74424ZM47.9384 20.3095H47.8814C47.5395 20.3095 47.3685 20.2121 47.3115 20.066C47.3115 19.9199 47.4825 19.8225 47.7674 19.8225C48.0274 19.8225 48.2389 19.8018 48.3863 19.7874L48.3863 19.7874C48.4651 19.7797 48.5256 19.7738 48.5653 19.7738C48.9642 19.7251 49.1922 19.6277 49.3061 19.5303C49.4771 19.4816 49.99 18.4101 50.9588 16.2673C51.2448 15.5749 51.5706 14.8825 51.8696 14.2471L51.9488 14.0787L52.0416 13.8809C52.1855 13.676 52.2487 13.5055 52.2991 13.3696L52.2991 13.3696C52.3085 13.344 52.3176 13.3196 52.3266 13.2965C52.3836 13.1991 52.4976 12.9556 52.6115 12.7121C52.7328 12.4356 52.8829 12.1101 53.0565 11.7334C53.3722 11.0483 53.766 10.1938 54.2072 9.1569L54.7771 7.98807L55.0051 7.45235C55.1191 7.16015 55.29 7.01404 55.404 7.01404C55.518 7.01404 55.632 7.25755 55.8599 7.79326C56.3159 8.7024 57.2278 10.6506 58.6125 13.609L58.613 13.6099L58.6177 13.6201L58.6209 13.6269L58.6212 13.6275L58.6214 13.628L58.6237 13.6328L58.6279 13.6418C59.3168 15.1136 60.1221 16.8341 61.046 18.7997C61.274 19.3842 61.5589 19.6764 61.7869 19.7251C61.8245 19.7572 62.0112 19.7682 62.3141 19.7859C62.47 19.795 62.6567 19.8059 62.8697 19.8225C63.2686 19.8225 63.4965 19.9199 63.4965 20.066C63.4965 20.2121 63.2686 20.2608 62.8127 20.2608H62.5847H60.5331H59.6213H58.0255H56.9997H56.3728H56.2019C55.803 20.2608 55.575 20.1634 55.575 20.0173C55.575 19.8712 55.9739 19.7738 56.7718 19.7738C57.7406 19.7251 58.1965 19.6764 58.1965 19.4816C58.1965 19.4626 58.1791 19.4287 58.1512 19.3742C58.1075 19.2891 58.038 19.1537 57.9686 18.9459C57.9686 18.8394 57.8172 18.4741 57.5585 17.8501L57.558 17.8489L57.5568 17.846C57.461 17.6149 57.3505 17.3484 57.2277 17.0465L56.8288 16.0725H52.0416C51.1298 18.0205 50.6739 19.1894 50.6739 19.4816C50.6739 19.6764 50.7879 19.7738 51.0728 19.7738L51.5287 19.8225H52.0416L52.2696 19.9199C52.5545 19.9199 52.6685 20.0173 52.6685 20.1147C52.6685 20.2608 52.4406 20.3095 51.9846 20.3095C51.9277 20.3095 51.5287 20.3095 50.7879 20.2608C50.047 20.2121 49.4201 20.2121 48.8502 20.2121H48.5653L48.2803 20.2608L47.9384 20.3095ZM56.6578 15.6342L54.4922 10.764C54.3188 11.1428 54.1193 11.5828 53.8937 12.0802C53.4522 13.054 52.9108 14.2481 52.2696 15.6342H56.6578ZM67.1426 11.1048C67.3706 11.1048 67.4846 10.91 67.5986 10.4717C67.7695 9.30287 68.1115 8.52364 68.6244 8.18273C69.1373 7.84182 70.2771 7.69572 72.0438 7.74442V18.0204C72.0438 18.7997 72.0437 19.2867 71.9868 19.4815C71.9868 19.6276 71.8728 19.725 71.7018 19.7737C71.5878 19.8224 71.4169 19.8224 71.1889 19.8224C70.448 19.8224 70.1061 19.9198 70.1061 20.0659C70.1061 20.212 70.3341 20.2607 70.79 20.2607H71.5878H73.4115H74.1524H75.0642H75.976H76.204C76.6029 20.2607 76.7739 20.212 76.7739 20.0659C76.7739 19.9198 76.432 19.8711 75.8051 19.8224C75.1782 19.8224 74.8362 19.6276 74.8362 19.238V7.79312C75.1033 7.79312 75.3313 7.77641 75.5201 7.76257C75.6537 7.75278 75.7676 7.74442 75.8621 7.74442C77.4008 7.74442 78.3696 8.08533 78.7685 8.71845C79.0535 9.20546 79.2814 9.83859 79.3384 10.5691C79.3384 10.91 79.5094 11.1048 79.7943 11.1048C80.0793 11.1048 80.1933 10.9587 80.1933 10.7152C80.1933 10.6665 80.1933 10.5691 80.1363 10.3743L80.0793 9.88729L79.9653 8.71845L79.8513 7.69572L79.7943 7.1113C79.7349 7.12147 79.6779 7.13163 79.6234 7.14136C79.4167 7.17821 79.2458 7.2087 79.1105 7.2087C77.0018 7.25741 75.5771 7.25741 74.8932 7.25741H67.0857C66.8577 8.86455 66.8007 9.93599 66.8007 10.4717C66.8007 10.91 66.9147 11.1048 67.1426 11.1048ZM85.8897 7.64683H85.5478C85.3198 7.64683 85.2628 7.59813 85.1489 7.45203C85.1489 7.30592 85.3198 7.25722 85.6048 7.25722H85.8327H86.5736H88.9672H89.594H90.3349H91.1898C91.5317 7.25722 91.7027 7.35462 91.7027 7.50073C91.7027 7.59813 91.3037 7.69554 90.5629 7.69554C90.2209 7.69554 90.05 7.74424 89.993 7.84164C89.936 7.93904 89.879 8.18255 89.879 8.62086V19.2865C89.879 19.4813 89.936 19.6274 90.107 19.6761C90.2779 19.7248 90.6768 19.7735 91.3037 19.8222C91.5887 19.8222 91.7027 19.9196 91.7027 20.017C91.7027 20.1631 91.6457 20.2118 91.4177 20.2118H91.0758H90.3919H89.5371H88.9672H88.6252H87.3715H86.0037H85.8897C85.4908 20.2118 85.3198 20.1631 85.3198 20.0657C85.3198 19.9196 85.5478 19.8222 86.0607 19.8222C86.6876 19.7735 87.0295 19.7248 87.0865 19.6274C87.1435 19.53 87.1435 19.1404 87.1435 18.4098V9.15658C87.1435 8.42606 87.1435 7.98774 87.0865 7.84164C87.0295 7.74424 86.8586 7.64683 86.5736 7.64683H85.8897ZM105.326 20.456C107.093 20.456 108.461 20.0176 109.486 19.1897C109.508 19.2269 109.522 19.257 109.533 19.2827C109.552 19.3243 109.565 19.3544 109.6 19.3845L109.885 19.9202C110.056 20.2611 110.227 20.4072 110.398 20.4072C110.569 20.4072 110.683 20.3098 110.683 20.115V19.9202C110.671 19.8085 110.659 19.701 110.648 19.5981L110.648 19.598L110.648 19.597L110.648 19.5969C110.605 19.2073 110.569 18.885 110.569 18.654C110.569 18.3743 110.592 17.9954 110.624 17.4794C110.642 17.1868 110.663 16.8501 110.683 16.4624C110.683 16.2942 110.71 16.1492 110.727 16.0596C110.735 16.0195 110.74 15.9905 110.74 15.9754C110.74 15.6345 110.626 15.4397 110.398 15.4397C110.227 15.4397 110.056 15.6832 109.942 16.1702C109.714 17.3391 109.201 18.2644 108.404 18.9462C107.663 19.628 106.694 19.9689 105.497 19.9689C103.958 19.9689 102.762 19.4332 101.907 18.3131C100.995 17.193 100.596 15.6832 100.596 13.7839C100.596 11.8845 100.995 10.3748 101.793 9.25464C102.591 8.13451 103.673 7.59879 105.041 7.59879C106.694 7.59879 107.834 8.13451 108.575 9.20594C108.86 9.69295 109.144 10.4722 109.372 11.4949C109.429 11.7871 109.543 11.9332 109.714 11.9332C109.942 11.9332 110.056 11.5436 110.056 10.7157C110.056 9.44944 110.17 8.47542 110.284 7.8423C110.341 7.6962 110.341 7.59879 110.341 7.59879C110.341 7.45269 110.284 7.35529 110.113 7.35529C109.885 7.35529 109.714 7.55009 109.543 7.9884L109.515 8.04935C109.419 8.25608 109.363 8.37802 109.258 8.37802C109.175 8.37802 109.122 8.35192 109.055 8.31883C109.031 8.30671 109.004 8.29366 108.974 8.28061C107.834 7.55009 106.409 7.16048 104.756 7.16048C102.591 7.16048 100.881 7.7936 99.4563 9.01113C98.0885 10.2774 97.4046 11.8358 97.4046 13.7839C97.4046 15.7319 98.1455 17.3391 99.6272 18.6053C101.223 19.8228 103.104 20.456 105.326 20.456ZM1.54543 25.3744H2.22931V29.9036H1.54543V25.3744ZM14.143 28.6374L12.7752 25.3744H11.9204V29.9036H12.5473V26.251L14.086 29.9036H14.7698V25.3744H14.143V28.6374ZM24.4558 25.3744H25.8805C26.8494 25.3744 27.2483 25.8127 27.2483 26.4945V28.7835C27.2483 29.4653 26.7924 29.9036 25.8805 29.9036H24.4558V25.3744ZM25.9375 29.4653C26.3935 29.4653 26.6214 29.2705 26.6214 28.8322H26.6784V26.4945C26.6784 26.1049 26.4504 25.8614 25.9375 25.8614H25.1967V29.4653H25.9375ZM38.9882 28.8322C38.9882 29.2218 38.7602 29.4653 38.3043 29.4653C37.7914 29.4653 37.6204 29.2218 37.6204 28.8322V25.3744H36.9366V28.8322C36.9366 29.514 37.3355 30.001 38.2473 30.001C39.1592 30.001 39.6151 29.5627 39.6151 28.8322V25.3744H38.9882V28.8322ZM50.6146 25.8122C50.1586 25.8122 49.9307 26.0557 49.9307 26.4453C49.9307 26.9417 50.4005 27.2201 50.8972 27.5144C51.4239 27.8265 51.9807 28.1564 52.0393 28.783C52.0393 29.4648 51.5834 29.9031 50.6715 29.9031C49.7597 29.9031 49.3038 29.4648 49.3038 28.783V28.5395H49.9307V28.8317C49.9307 29.2213 50.1586 29.4648 50.6146 29.4648C51.0705 29.4648 51.2984 29.2213 51.2984 28.8317C51.2984 28.3476 50.8516 28.0708 50.3808 27.7793C49.8571 27.4549 49.3038 27.1122 49.3038 26.4453C49.3038 25.7635 49.7027 25.3252 50.6146 25.3252C51.4694 25.3252 51.9253 25.7635 51.9253 26.4453V26.5914H51.2984V26.4453C51.2984 26.0557 51.0705 25.8122 50.6146 25.8122ZM61.3285 25.8127H62.4113V29.9036H63.0952V25.8127H64.178V25.3744H61.3285V25.8127ZM75.6334 27.712C76.1463 27.8094 76.3742 28.1504 76.3742 28.6374V29.3679C76.3742 29.5627 76.3742 29.7575 76.4882 29.9036H75.8043C75.7473 29.8062 75.6904 29.6601 75.6904 29.3679V28.6374C75.6904 28.1017 75.4054 27.9556 74.8355 27.9556H74.3796V29.9036H73.6957V25.3744H75.0635C75.9753 25.3744 76.3742 25.7153 76.3742 26.3971V26.7867C76.3742 27.2737 76.1463 27.5659 75.6334 27.712ZM74.3796 27.5172H74.8925C75.4054 27.5172 75.7474 27.3711 75.6904 26.8841V26.4458C75.6904 26.0075 75.5194 25.8127 75.0065 25.8127H74.3796V27.5172ZM86.8583 25.3744H86.1744V29.9036H86.8583V25.3744ZM98.9999 29.9036H96.5493V25.3744H98.9999V25.8127H97.2332V27.3711H98.7149V27.8582H97.2332V29.4653H98.9999V29.9036ZM109.314 26.4453C109.314 26.0557 109.542 25.8122 109.998 25.8122C110.454 25.8122 110.682 26.0557 110.682 26.4453V26.5914H111.309V26.4453C111.309 25.7635 110.853 25.3252 109.998 25.3252C109.087 25.3252 108.688 25.7635 108.688 26.4453C108.688 27.1122 109.241 27.4549 109.765 27.7793C110.235 28.0708 110.682 28.3476 110.682 28.8317C110.682 29.2213 110.454 29.4648 109.998 29.4648C109.542 29.4648 109.314 29.2213 109.314 28.8317V28.5395H108.688V28.783C108.688 29.4648 109.143 29.9031 110.055 29.9031C110.967 29.9031 111.423 29.4648 111.423 28.783C111.364 28.1564 110.808 27.8265 110.281 27.5144C109.784 27.2201 109.314 26.9417 109.314 26.4453ZM0.746879 22.4037H111.136V22.8907H0.746879V22.4037Z" fill="#00AB55"/>
</svg>

<svg width="112" height="30" fill="none" xmlns="http://www.w3.org/2000/svg"><path fill-rule="evenodd" clip-rule="evenodd" d="M1.431 20.26a7.31 7.31 0 0 1 2.052-.048c1.368.098 2.565.098 3.59.098.57 0 .855-.098.855-.293 0-.194-.342-.243-.968-.292a64.631 64.631 0 0 1-1.469-.086c-.105-.007-.167-.011-.184-.011-.285-.049-.4-.195-.4-.487 0-.439.685-2.192 1.996-5.26h7.123c.55 1.376.937 2.428 1.2 3.14v.001c.118.321.211.574.282.755l.17.39.286.779c.057.146.057.195.057.243 0 .341-.969.487-2.964.487-.627 0-.911.098-.911.341 0 .195.227.293.683.293.171 0 .342 0 .513-.05l4.275-.097 4.217.098c.08 0 .17.01.269.022.113.012.235.026.358.026.342 0 .513-.097.513-.243s-.285-.243-.855-.292c-.855 0-1.425-.098-1.71-.195-.285-.097-.513-.39-.684-.828l-5.984-13.88C12.716 2.533 12.031.975 11.747.196 11.69.098 11.633 0 11.576 0c-.114 0-.228.097-.285.292l-.114.585c-.171.292-.285.535-.285.779a976.933 976.933 0 0 0-7.01 16.948c-.17.438-.399.78-.74.925-.286.146-.799.244-1.54.293-.683 0-1.025.097-1.025.292 0 .195.17.243.456.243.064-.027.128-.04.202-.053.058-.01.122-.023.196-.044Zm9.062-15.243 1.596 3.945c.289.676.545 1.284.774 1.826.447 1.06.785 1.863 1.05 2.411H7.13c1.311-3.312 2.451-6.088 3.363-8.182Zm15.96 2.727c.797 0 1.31.098 1.48.195.172.097.229.487.229 1.12v9.692c0 .535-.057.828-.114.925-.057.098-.342.146-.855.146-.74 0-1.083.098-1.083.244s.171.243.513.243h3.761c.456 0 .684-.097.684-.243s-.17-.195-.456-.195c-.513 0-.911 0-1.196-.049-.228-.049-.342-.195-.342-.438v-9.79c2.507 5.212 3.989 8.475 4.502 9.79.228.536.399.78.57.78.114 0 .285-.293.513-.878l.473-1.243.004-.01c.577-1.517 1.054-2.77 1.46-3.812.67-1.611 1.187-2.88 1.572-3.826l.001-.003.365-.895v9.205c0 .633-.057.974-.114 1.071-.057.05-.342.098-.798.098-.44 0-.767.024-.963.038-.083.006-.143.01-.177.01-.114 0-.17.05-.17.147 0 .146.227.195.626.195h5.984c.399 0 .627-.098.627-.244s-.171-.244-.513-.244c-.855 0-1.368-.048-1.539-.097-.17-.049-.228-.487-.228-1.217V8.426c0-.34.171-.536.456-.633.035 0 .093-.005.171-.011.176-.015.461-.038.855-.038.399 0 .627-.097.627-.243 0-.195-.285-.244-.855-.244h-4.046L35.57 14.27l-.174.439c-.165.412-.38.947-.623 1.607l-1.71-3.75c-.333-.728-.619-1.312-.84-1.765V10.8c-.12-.244-.22-.45-.3-.62l-.798-1.705a8.097 8.097 0 0 0-.456-.877l-.114-.292c-2.28 0-3.647 0-3.989.049-.399 0-.57.097-.57.194 0 .098.171.195.456.195ZM47.937 20.31h-.057c-.342 0-.513-.098-.57-.244 0-.146.172-.243.456-.243.26 0 .472-.021.62-.036.078-.007.139-.013.178-.013.4-.049.627-.146.741-.244.171-.048.684-1.12 1.653-3.263.286-.692.612-1.384.91-2.02l.08-.168.093-.198c.143-.205.207-.376.257-.511l.028-.073c.057-.098.17-.341.285-.585.12-.276.27-.602.444-.979.316-.685.71-1.54 1.151-2.576l.57-1.169.228-.536c.114-.292.285-.438.399-.438.114 0 .228.244.456.78.456.908 1.368 2.857 2.752 5.815h.001l.005.011.003.007v.001l.003.005.004.009c.689 1.472 1.494 3.192 2.418 5.158.228.584.513.876.74.925.038.032.225.043.528.06.156.01.343.02.556.038.399 0 .627.097.627.243s-.228.195-.684.195H56.202c-.399 0-.627-.098-.627-.244s.399-.243 1.197-.243c.969-.049 1.425-.098 1.425-.292 0-.02-.018-.053-.046-.108a2.841 2.841 0 0 1-.182-.428c0-.107-.152-.472-.41-1.096l-.001-.001-.001-.003c-.096-.231-.207-.498-.33-.8l-.398-.973h-4.787c-.912 1.947-1.368 3.116-1.368 3.409 0 .194.114.292.399.292l.456.049h.513l.228.097c.284 0 .398.097.398.195 0 .146-.227.195-.683.195-.057 0-.456 0-1.197-.05-.741-.048-1.368-.048-1.938-.048h-.285l-.285.049-.342.049Zm8.72-4.676-2.166-4.87-.598 1.316c-.442.974-.983 2.168-1.624 3.554h4.388Zm10.485-4.53c.228 0 .342-.194.456-.632.17-1.17.513-1.948 1.025-2.29.513-.34 1.653-.486 3.42-.438V18.02c0 .78 0 1.267-.057 1.462 0 .146-.114.243-.285.292-.114.048-.285.048-.513.048-.741 0-1.083.098-1.083.244s.228.195.684.195h5.414c.399 0 .57-.049.57-.195 0-.146-.342-.195-.969-.244-.627 0-.969-.194-.969-.584V7.793c.267 0 .495-.017.684-.03.134-.01.248-.019.342-.019 1.539 0 2.508.341 2.907.974.284.487.512 1.12.57 1.851 0 .341.17.536.455.536.285 0 .4-.146.4-.39 0-.049 0-.146-.058-.34l-.057-.488-.114-1.169-.114-1.022-.057-.585-.17.03c-.207.037-.378.068-.513.068-2.11.048-3.534.048-4.218.048h-7.807c-.228 1.608-.285 2.679-.285 3.215 0 .438.114.633.342.633ZM85.89 7.648h-.342c-.228 0-.285-.049-.4-.195 0-.146.172-.195.457-.195h5.585c.342 0 .513.098.513.244 0 .097-.4.195-1.14.195-.342 0-.513.048-.57.146-.057.097-.114.34-.114.779v10.665c0 .195.057.341.228.39.17.049.57.098 1.197.146.285 0 .399.098.399.195 0 .146-.057.195-.285.195H85.89c-.4 0-.57-.049-.57-.146 0-.146.228-.244.74-.244.628-.049.97-.097 1.026-.195.058-.097.058-.487.058-1.217V9.157c0-.73 0-1.17-.058-1.315-.056-.098-.227-.195-.512-.195h-.684Zm19.436 12.809c1.767 0 3.135-.438 4.16-1.266a.773.773 0 0 1 .047.093c.019.041.032.071.067.101l.285.536c.171.341.342.487.513.487.171 0 .285-.097.285-.292v-.195l-.035-.322v-.001c-.043-.39-.079-.712-.079-.943 0-.28.023-.659.055-1.175.018-.292.039-.629.059-1.017 0-.168.027-.313.044-.402a.561.561 0 0 0 .013-.085c0-.34-.114-.535-.342-.535-.171 0-.342.243-.456.73-.228 1.17-.741 2.094-1.538 2.776-.741.682-1.71 1.023-2.907 1.023-1.539 0-2.735-.536-3.59-1.656-.912-1.12-1.311-2.63-1.311-4.53 0-1.899.399-3.408 1.197-4.528.798-1.12 1.88-1.656 3.248-1.656 1.653 0 2.793.536 3.534 1.607.285.487.569 1.266.797 2.289.057.292.171.438.342.438.228 0 .342-.39.342-1.217 0-1.267.114-2.24.228-2.874.057-.146.057-.243.057-.243 0-.146-.057-.244-.228-.244-.228 0-.399.195-.57.633l-.028.061c-.096.207-.152.329-.257.329a.418.418 0 0 1-.203-.06 1.552 1.552 0 0 0-.081-.037c-1.14-.73-2.565-1.12-4.218-1.12-2.165 0-3.875.633-5.3 1.85-1.368 1.266-2.051 2.825-2.051 4.773 0 1.948.74 3.555 2.222 4.821 1.596 1.218 3.477 1.851 5.699 1.851ZM1.546 25.374h.683v4.53h-.684v-4.53Zm12.597 3.263-1.368-3.263h-.855v4.53h.627V26.25l1.539 3.653h.684v-4.53h-.627v3.263Zm10.313-3.263h1.425c.968 0 1.367.439 1.367 1.12v2.29c0 .681-.456 1.12-1.367 1.12h-1.425v-4.53Zm1.482 4.091c.456 0 .683-.195.683-.633h.057v-2.338c0-.39-.228-.633-.74-.633h-.741v3.604h.74Zm13.05-.633c0 .39-.228.633-.684.633-.513 0-.684-.243-.684-.633v-3.458h-.683v3.458c0 .682.399 1.169 1.31 1.169.912 0 1.368-.438 1.368-1.169v-3.458h-.627v3.458Zm11.627-3.02c-.456 0-.684.244-.684.633 0 .497.47.775.966 1.07.527.311 1.084.641 1.142 1.268 0 .682-.456 1.12-1.367 1.12-.912 0-1.368-.438-1.368-1.12v-.244h.627v.293c0 .39.228.633.684.633.456 0 .683-.244.683-.633 0-.484-.446-.761-.917-1.053-.524-.324-1.077-.667-1.077-1.334 0-.681.399-1.12 1.31-1.12.855 0 1.311.439 1.311 1.12v.146h-.627v-.146c0-.39-.227-.633-.683-.633Zm10.713 0h1.083v4.092h.684v-4.091h1.083v-.439h-2.85v.439Zm14.305 1.9c.513.097.741.438.741.925v.73c0 .196 0 .39.114.537h-.684c-.057-.098-.114-.244-.114-.536v-.73c0-.536-.285-.682-.855-.682h-.455v1.948h-.684v-4.53h1.368c.911 0 1.31.341 1.31 1.023v.39c0 .487-.228.779-.74.925Zm-1.253-.195h.513c.512 0 .854-.146.797-.633v-.438c0-.439-.17-.633-.683-.633h-.627v1.704Zm12.478-2.143h-.684v4.53h.684v-4.53ZM99 29.904h-2.45v-4.53H99v.439h-1.767v1.558h1.482v.487h-1.482v1.607H99v.439Zm10.314-3.459c0-.39.228-.633.684-.633.456 0 .684.244.684.633v.146h.627v-.146c0-.681-.456-1.12-1.311-1.12-.911 0-1.31.439-1.31 1.12 0 .667.553 1.01 1.077 1.334.47.292.917.569.917 1.053 0 .39-.228.633-.684.633-.456 0-.684-.244-.684-.633v-.293h-.626v.244c0 .682.455 1.12 1.367 1.12.912 0 1.368-.438 1.368-1.12-.059-.627-.615-.957-1.142-1.269-.497-.294-.967-.572-.967-1.069ZM.747 22.404h110.389v.487H.746v-.487Z" fill="#00AB55"/></svg>
